src/images/svg/logo.svg

<svg width="90" height="42" viewBox="0 0 90 42" fill="none" xmlns="http://www.w3.org/2000/svg">
<path fill-rule="evenodd" clip-rule="evenodd" d="M19.6401 0.288483H24.7877V19.6459H19.6401V12.2491H5.1476V19.6459H0V0.288483H5.1476V7.71143H19.6401V0.288483Z" fill="#333333"/>
<path fill-rule="evenodd" clip-rule="evenodd" d="M41.9727 0.288483L51.7664 19.6459H45.9852L44.0054 15.4491H33.6574L31.6775 19.6459H25.8964L35.7164 0.288483H41.9727ZM41.8144 10.859L38.8578 4.53767L35.8484 10.859H41.8144Z" fill="#333333"/>
<path d="M59.3954 0.367218H54.2742V19.6459H59.3954V0.367218Z" fill="#333333"/>
<path fill-rule="evenodd" clip-rule="evenodd" d="M87.7996 7.23934C87.7996 8.31475 87.6676 9.23278 87.3772 9.99344C87.1133 10.7541 86.7437 11.4098 86.2949 11.9344C85.8462 12.459 85.3182 12.9049 84.7374 13.2197C84.1567 13.5344 83.5231 13.7967 82.8632 13.9803L88.7763 19.3574H81.7017L76.5805 14.4787H69.7434V19.3574H64.5694V0H78.5075C79.0883 0 79.7218 0.0262303 80.4082 0.0786893C81.0945 0.131148 81.7809 0.236066 82.4936 0.393443C83.18 0.55082 83.8399 0.786884 84.4735 1.10164C85.107 1.41639 85.6614 1.83606 86.1629 2.38688C86.6645 2.9377 87.0605 3.59344 87.3508 4.38033C87.6412 5.16721 87.7996 6.1377 87.7996 7.23934ZM69.717 9.62623H78.9035C79.5898 9.62623 80.1706 9.57377 80.6194 9.46885C81.0681 9.36393 81.4113 9.20656 81.6753 8.99672C81.9393 8.78689 82.0976 8.55082 82.2032 8.2623C82.3088 7.97377 82.3616 7.63278 82.3616 7.23934C82.3616 6.87213 82.3088 6.53115 82.2032 6.24262C82.0976 5.9541 81.9129 5.6918 81.6753 5.5082C81.4113 5.29836 81.0681 5.14098 80.6194 5.03607C80.1706 4.93115 79.6162 4.87869 78.9035 4.87869H69.717V9.62623Z" fill="#333333"/>
<path fill-rule="evenodd" clip-rule="evenodd" d="M8.81692 27.3312C8.13057 27.3312 7.54981 27.4623 7.12744 27.7246C6.67868 27.9869 6.33551 28.3541 6.07153 28.8C5.80755 29.2459 5.64916 29.7443 5.54357 30.3213C5.43798 30.8984 5.38519 31.5017 5.38519 32.1049C5.38519 32.7082 5.43798 33.3115 5.54357 33.8885C5.64916 34.4656 5.80755 34.9902 6.07153 35.4361C6.33551 35.882 6.67868 36.2492 7.12744 36.5115C7.57621 36.7738 8.13057 36.9049 8.81692 36.9049H15.9972C16.8419 36.9049 17.5282 36.6951 18.0826 36.2492C18.6106 35.8295 18.9537 35.2787 19.0857 34.6492H9.76724V31.082H24.5501V41.7312H20.8544L20.2208 40.3148C19.6929 40.6295 19.1649 40.8656 18.5842 41.0492C18.0298 41.2328 17.4754 41.3639 16.9211 41.4689C16.3667 41.5738 15.8388 41.6262 15.3372 41.6787C14.8357 41.7049 14.3605 41.7312 13.9117 41.7312H10.2424C9.66165 41.7312 9.0017 41.7049 8.26256 41.6262C7.52342 41.5738 6.78428 41.4164 6.01874 41.2066C5.25319 40.9705 4.51405 40.6558 3.80131 40.2361C3.08856 39.8164 2.42861 39.2394 1.87425 38.5312C1.3199 37.823 0.871133 36.9312 0.527959 35.882C0.184786 34.8328 0 33.5738 0 32.0787C0 30.6099 0.184786 29.3508 0.527959 28.2754C0.871133 27.2262 1.3199 26.3344 1.87425 25.6262C2.42861 24.918 3.08856 24.341 3.80131 23.9213C4.51405 23.5017 5.27959 23.1869 6.01874 22.9508C6.78428 22.7148 7.52342 22.5836 8.26256 22.5312C9.0017 22.4787 9.66165 22.4262 10.2424 22.4262H14.4661C14.994 22.4262 15.5748 22.4525 16.2347 22.5049C16.8947 22.5574 17.5546 22.6623 18.241 22.8459C18.9273 23.0295 19.5873 23.2656 20.2736 23.5803C20.96 23.8951 21.5671 24.341 22.1479 24.8918C22.7286 25.4426 23.2038 26.1246 23.6262 26.9115C24.0485 27.7246 24.3389 28.6689 24.5237 29.7967H19.0065C18.8745 29.0098 18.5314 28.4066 18.0298 27.9607C17.5282 27.5148 16.8155 27.2787 15.8916 27.2787H8.81692V27.3312ZM89.2251 32.1049C89.2251 33.5738 89.0403 34.8328 88.6971 35.9082C88.354 36.9574 87.9052 37.8492 87.3244 38.5574C86.7437 39.2656 86.1101 39.8426 85.3974 40.2623C84.6847 40.682 83.9455 40.9967 83.18 41.2328C82.4144 41.4689 81.6753 41.6 80.9362 41.6525C80.197 41.7049 79.5371 41.7574 78.9563 41.7574H69.6906H64.4902H63.9359L61.956 37.5607H51.6608L49.681 41.7574H49.1266H43.9262H42.1047L36.9835 36.9049H30.1729V41.7574H24.9989V22.4787H38.8842C39.4649 22.4787 40.0985 22.5049 40.7848 22.5574C41.4712 22.6098 42.1575 22.7148 42.8439 22.8721C43.5302 23.0295 44.1902 23.2656 44.8237 23.5803C45.4573 23.8951 46.0116 24.3148 46.5132 24.8656C47.0148 25.4164 47.3843 26.0721 47.7011 26.859C47.9915 27.6459 48.1499 28.5902 48.1499 29.718C48.1499 30.7672 48.0179 31.6853 47.7539 32.4459C47.4899 33.2066 47.1204 33.8623 46.6716 34.3869C46.2228 34.9115 45.6949 35.3574 45.1141 35.6721C44.5334 35.9869 43.8998 36.2492 43.2399 36.4328L45.5629 38.5312L53.6934 22.5049H59.9498L64.4902 31.5017V22.5049H78.9827C79.5634 22.5049 80.2234 22.5312 80.9625 22.6098C81.7017 22.6623 82.4408 22.8197 83.2064 23.0295C83.9719 23.2656 84.7111 23.5803 85.4238 24C86.1365 24.4197 86.7701 24.9967 87.3509 25.7049C87.9316 26.4131 88.3804 27.3049 88.7235 28.3541C89.0403 29.3508 89.2251 30.6361 89.2251 32.1049ZM80.3818 36.9049C81.0681 36.9049 81.6225 36.7738 82.0713 36.5115C82.4936 36.2492 82.8632 35.882 83.1008 35.4361C83.3647 34.9902 83.5231 34.4656 83.6287 33.8885C83.7343 33.3115 83.7871 32.7082 83.7871 32.1049C83.7871 31.5017 83.7343 30.8984 83.6287 30.3213C83.5231 29.7443 83.3647 29.2459 83.1008 28.8C82.8368 28.3541 82.4936 28.0131 82.0713 27.7246C81.6489 27.4623 81.0681 27.3312 80.3818 27.3312H69.6378V36.9049H80.3818ZM59.7914 32.9967L56.8348 26.7017L53.8518 32.9967H59.7914ZM30.1729 32.0525H39.333C40.0193 32.0525 40.6001 32 41.0224 31.8951C41.4712 31.7902 41.8144 31.6328 42.0783 31.423C42.3423 31.2131 42.5007 30.9771 42.6063 30.6885C42.7119 30.4 42.7647 30.059 42.7647 29.6656C42.7647 29.2984 42.7119 28.9574 42.6063 28.6689C42.5007 28.3803 42.3423 28.1443 42.0783 27.9344C41.8144 27.7246 41.4712 27.5672 41.0224 27.4885C40.5737 27.3836 40.0193 27.3312 39.333 27.3312H30.1729V32.0525Z" fill="#333333"/>
</svg>

<svg width="90" height="42" fill="none" xmlns="http://www.w3.org/2000/svg"><path fill-rule="evenodd" clip-rule="evenodd" d="M19.64.29h5.15v19.36h-5.15v-7.4H5.14v7.4H0V.29h5.15V7.7h14.49V.3ZM41.97.29l9.8 19.36h-5.78L44 15.45H33.66l-1.98 4.2H25.9L35.72.29h6.25Zm-.16 10.57-2.95-6.32-3.01 6.32h5.96Z" fill="#333"/><path d="M59.4.37h-5.13v19.28h5.13V.37Z" fill="#333"/><path fill-rule="evenodd" clip-rule="evenodd" d="M87.8 7.24c0 1.07-.13 2-.42 2.75a5.57 5.57 0 0 1-2.64 3.23c-.58.31-1.22.58-1.88.76l5.92 5.38H81.7l-5.12-4.88h-6.84v4.88h-5.17V0H78.5c.58 0 1.21.03 1.9.08.68.05 1.37.16 2.08.31.69.16 1.35.4 1.98.71a5.99 5.99 0 0 1 2.88 3.28c.3.79.45 1.76.45 2.86ZM69.72 9.63h9.18a7.8 7.8 0 0 0 1.72-.16c.45-.1.8-.26 1.06-.47.26-.21.42-.45.52-.74.1-.29.16-.63.16-1.02 0-.37-.05-.7-.16-1-.1-.29-.29-.55-.52-.73-.27-.21-.61-.37-1.06-.47-.45-.1-1-.16-1.72-.16h-9.18v4.75ZM8.82 27.33c-.69 0-1.27.13-1.7.4-.44.26-.78.62-1.05 1.07-.26.45-.42.94-.53 1.52a9.96 9.96 0 0 0 0 3.57c.1.58.27 1.1.53 1.55.27.44.6.8 1.06 1.07.45.26 1 .4 1.69.4H16a3.2 3.2 0 0 0 2.08-.66c.53-.42.87-.97 1-1.6H9.78v-3.57h14.78v10.65h-3.7l-.63-1.42c-.53.32-1.06.56-1.64.74-.55.18-1.1.31-1.66.42-.55.1-1.08.16-1.58.2-.5.03-.98.06-1.43.06h-3.67c-.58 0-1.24-.03-1.98-.1a10.35 10.35 0 0 1-4.46-1.39c-.71-.42-1.37-1-1.93-1.7-.55-.72-1-1.6-1.34-2.66-.35-1.05-.53-2.3-.53-3.8 0-1.47.18-2.73.53-3.8.34-1.05.79-1.95 1.34-2.65a6.93 6.93 0 0 1 1.93-1.7 9.92 9.92 0 0 1 4.46-1.39c.74-.06 1.4-.11 1.98-.11h4.23c.52 0 1.1.02 1.76.07a11.08 11.08 0 0 1 4.04 1.08c.69.32 1.3.76 1.88 1.31a7.86 7.86 0 0 1 1.48 2.02c.42.81.7 1.76.9 2.89H19a3.05 3.05 0 0 0-.98-1.84 3.12 3.12 0 0 0-2.14-.68H8.82v.05Zm80.4 4.77c0 1.47-.18 2.73-.52 3.8a8.12 8.12 0 0 1-1.38 2.66 7.32 7.32 0 0 1-1.92 1.7 10.35 10.35 0 0 1-4.46 1.4c-.74.04-1.4.1-1.98.1H63.94l-1.98-4.2h-10.3l-1.98 4.2H42.1l-5.12-4.86h-6.8v4.86H25V22.48h13.88c.58 0 1.22.02 1.9.08.7.05 1.38.15 2.06.31.69.16 1.35.4 1.98.71.64.32 1.2.73 1.7 1.29.5.55.86 1.2 1.18 1.99.3.79.45 1.73.45 2.86 0 1.05-.13 1.97-.4 2.73a5.57 5.57 0 0 1-2.64 3.23c-.58.3-1.21.57-1.87.75l2.32 2.1L53.7 22.5h6.26l4.54 9v-9h14.5c.57 0 1.23.03 1.97.11A10.35 10.35 0 0 1 85.42 24c.72.42 1.35 1 1.93 1.7.58.71 1.03 1.6 1.37 2.65.32 1 .5 2.29.5 3.75Zm-8.84 4.8c.69 0 1.24-.13 1.7-.39.41-.26.78-.63 1.02-1.07.26-.45.42-.97.53-1.55a9.96 9.96 0 0 0 0-3.57 4.52 4.52 0 0 0-.53-1.52c-.26-.45-.6-.79-1.03-1.08-.42-.26-1-.39-1.69-.39H69.64v9.57h10.74ZM59.8 33l-2.96-6.3-2.98 6.3h5.94Zm-29.62-.95h9.16c.69 0 1.27-.05 1.7-.15.44-.11.78-.27 1.05-.48.26-.2.42-.44.53-.73.1-.29.15-.63.15-1.02 0-.37-.05-.71-.15-1a1.6 1.6 0 0 0-.53-.74 2.3 2.3 0 0 0-1.06-.44c-.45-.1-1-.16-1.69-.16h-9.16v4.72Z" fill="#333"/></svg>
